X:1
T:Dalkeith, 10.10.10.10
T:Dalkeith, 10.10.10.10
T:Thomas Hewlett, 1866
T:Public Domain Courtesy of the Cyber Hymnal™
C:Thomas Hewlett, 1866
Z:Public Domain
Z:Courtesy of the Cyber Hymnal™
%%score ( 1 2 ) 3
L:1/8
Q:1/4=110
M:4/4
K:D
V:1 treble 
V:2 treble 
V:3 bass 
V:1
 [DA]4 | [CF]2 [CE]2 D2 D2 | [DE]2 [DF]2 A3 (z G) | [DF]4 [DF]4 | [EF]2 [DF]2 [Fd]2 [Fd]2 | %5
 [^Ec]2 [CA]2 [CF]2 (z F) | [C^E]4 [CF]4 | [FA]2 [FA]2 [FA]2 [EG]2 | [EG]2 [DF]2 E2 [EB]2 | %9
 A4 [Ad]4 | d3 (z d) [Gd]2 [DB]2 | [DA]2 [D^G]2 [DA]2 [CE]2 | D4 |] %13
V:2
 x4 | x4 D2 D2 | x4 D2 C2 x | x8 | x8 | x6 ^B,2 | x8 | x8 | x4 E2 x2 | A4 x4 | F2 F2 x5 | x8 | %12
 D4 |] %13
V:3
 [D,F,]4 | [A,,A,]2 [A,,G,]2 [B,,F,]2 [F,A,]2 | [G,B,]2 [F,A,]2 [E,B,]2 [A,,A,]2 x | %3
 [D,A,]4 [D,A,]4 | [C,^A,]2 [B,,B,]2 [B,,B,]2 [B,,=A,]2 | [C,^G,]2 [F,A,]2 [D,A,]2 [D,F,]2 | %6
 [C,^G,]4 [F,A,]4 | [F,C]2 [E,=C]2 [^D,B,]2 [E,B,]2 | [A,,C]2 [A,D]2 [^G,D]2 [=G,C]2 | %9
 [F,D]4 [F,D]4 | [D,=C]2 [D,C]2 [G,B,]2 [G,,G,]2 x | [A,,F,]2 [B,,^E,]2 [A,,F,]2 [A,,G,]2 | %12
 [D,F,]4 |] %13

